X:1
T:The Maiden
T:The Maiden
T:Copyright © CPDL
T:Copyright © CPDL
T:Copyright © CPDL
T:Copyright © CPDL
T:Copyright © CPDL
T:Copyright © CPDL
Z:Copyright © CPDL
%%score 1 ( 2 3 4 5 ) ( 6 7 8 )
L:1/8
Q:1/4=70
M:2/4
K:Ab
V:1 treble nm="P1"
V:2 treble nm="P2"
V:3 treble 
V:4 treble 
V:5 treble 
V:6 bass nm="P3"
V:7 bass 
V:8 bass 
V:1
"^Editor: John Henry Fowler""^(  Revision:   5 - 21 - 2008  )""^Lightly""^English Poet, Great Niece of Samuel Taylor Coleridge""^Words by Mary Elizabeth Coleridge, (1861 - 1907)""^From \"English Lyrics\" -  Set 9 -  Number 6" z4 | %1
w: |
"^Charles Hubert Hastings Parry""^( 1848 - 1918 )" z4 | z4 | z4 | c>A BE | FG/A/ E2 | %6
w: |||Who was this that|came by the way,|
!<(! A>c!<)! f!>(!e | d!>)!F z B | dc/B/ A>G | Ac FG/A/ | EA/c/ dB |!<(! e>c f>d!<)! |!>(! a4- | %13
w: When the flowers were|spring- ing~? She|bore in her hair the|buds of May, and a|bird on her shoul- der,|sing- * * *||
 a>f (3d/e/d/ c/B/!>)! | AE z2 | z4 | z4 | z2 z!p! E | cA B>E | FA E!<(!E | Ac!<)!!>(! f>!>)!e | %21
w: |* ing.|||A|gir- dle of the|fair- est green Her|slen- der waist con~\-|
 dF z B | d>B AG | Ac FA |"^cresc." Ec dB | (e>c (3fed | a4- | a>f (3d/e/d/ c/B/ | A)E z2 | z4 | %30
w: \-~fi- \-~ned, And|such a flame was|nev- er seen As|in her eyes there|shi~\-- * * * *|||\- \-~ned.||
 z4 | z2 z!mf! B/B/ | eB Ac | eB Ac |!<(! e>f!<)! gG | ec z2 | z!p!"^meno mosso" F =Ac | e>d f_A | %38
w: |By the|way she came, that|way she went, And|took the sun- light|with her.|The May of|life shall all be|
 G2 z2 | z4 | z e!<(! c>e!<)! |"^poco rit." (a4- | ag/f/ (3e/f/e/d/)!breath!c/ |"^a tempo" cA z2 | %44
w: spent||Ere she a-|gain|_ _ _ _ _ _ _ come|hith- er~!|
 z4 | z4 | z4 | z4 | z4 |] %49
w: |||||
V:2
 (6:4:6x/ x/ x/ =D/E/c/ (6:4:6x/ x/ x/ D/E/B/ | (6:4:6x/ x/ x/ =B,/C/A/ (6:4:6x/ x/ x/ B,/C/G/ | %2
 (6:4:6x/ x/ x/ G,/A,/F/ (6:4:6x/ x/ x/ A,/E/A/ | (6:4:6x/ x/ x/ D/A/d/ (6:4:6x/ x/ x/ =D/E/G/ | %4
 (6:4:6x/ x/ x/ =D/E/c/ (6:4:6x/ x/ x/ D/E/B/ | (6:4:6x/ x/ x/ =D/E/A/ (6:4:6x/ x/ x/ D/E/B/ | %6
 (6:4:6x/ x/ x/ =D/E/c/ (6:4:6x/ x/ x/ G/A/e/ | (6:4:6x/ x/ x/ =E/F/d/ (6:4:6x/ x/ x/ E/F/d/ | %8
 (6:4:6x/ x/ x/ =E/F/d/ (6:4:6x/ x/ x/ E/G/c/ | (6:4:6x/ x/ x/ =E/F/A/ (6:4:6x/ x/ x/ E/F/A/ | %10
 (6:4:6x/ x/ x/ _E/A/c/ (6:4:6x/ x/ x/ D/c/d/ | (6:4:6x/ x/ x/ E/A/e/ (6:4:6x/ x/ x/ F/c/f/ | %12
 (6:4:6x/ x/ x/ A/d/a/ z2 | z2 z .[DG] | (6:4:6x/ x/ x/ =d/e/c'/ (6:4:6x/ x/ x/ d/e/b/ | %15
 (6:4:6x/ x/ x/ =B/c/a/ (6:4:6x/ x/ x/ c/g/c'/ | (6:4:6x/ x/ x/ G/A/f/ (6:4:6x/ x/ x/ A/e/a/ | %17
 (6:4:6x/ x/ x/ A/d/f/ (6:4:6x/ x/ x/ G/B/d/ | (6:4:6x/ x/ x/ =D/E/c/ (6:4:6x/ x/ x/ D/E/B/ | %19
 (6:4:6x/ x/ x/ =D/E/A/ (6:4:6x/ x/ x/ D/E/B/ | (6:4:6x/ x/ x/ =D/E/c/ (6:4:6x/ x/ x/ F/A/e/ | %21
 (6:4:6x/ x/ x/ =E/F/d/ (6:4:6x/ x/ x/ E/F/d/ | (6:4:6x/ x/ x/ =E/F/d/ (6:4:6x/ x/ x/ E/G/c/ | %23
 (6:4:6x/ x/ x/ =E/F/A/ (6:4:6x/ x/ x/ E/F/A/ | %24
"^cresc." (6:4:6x/ x/ x/ E/A/c/ (6:4:6x/ x/ x/ D/A/d/ | %25
 (6:4:6x/ x/ x/ E/A/e/ (6:4:6x/ x/ x/ F/c/f/ | x A/4d/4f/4a/4 x2 | z2 z [DG] | %28
 (6:4:6x/ x/ x/ =D/E/c/ (6:4:6x/ x/ x/ E/G/e/ | (6:4:6x/ x/ x/ C/F/A/ (6:4:6x/ x/ x/ C/E/c/ | %30
 (6:4:6x/ x/ x/ A,/C/F/ (6:4:6x/ x/ x/ A,/_E/A/ | (6:4:6x/ x/ x/ C/E/c/ (6:4:6x/ x/ x/ B,/=D/B/ | %32
 (6:4:6x/ x/ x/ G,/E/G/ (6:4:6x/ x/ x/ E/F/c/ | (6:4:6x/ x/ x/ G,/E/G/ (6:4:6x/ x/ x/ E/F/c/ | %34
 (6:4:6x/ x/ x/ G,/E/G/ (6:4:6x/ x/ x/ =B,/F/=B/ | (6:4:6x/ x/ x/ E/G/e/ (6:4:6x/ x/ x/ e/g/e'/ | %36
"^meno mosso" .[=Ae=a]2 z F | ([EF=A][DB]) z2 | (6:4:6x/ x/ x/ B,/F/G/ (6:4:6x/ x/ x/ B,/=E/B/ | %39
 (6:4:6x/ x/ x/ A,/C/A/ (6:4:6x/ x/ x/ A,/B,/=D/ | (6:4:6x/ x/ x/ A,/E/A/ [EAc] z | %41
"^poco rit." z (.[GAe].[FAd].[EAc]) | .[FAf]2 [G,_DG]2 | %43
"^a tempo" (6:4:6x/ x/ x/ E/A/c/ (6:4:6x/ x/ x/ E/A/e/ | (6:4:6x/ x/ x/ A/=d/a/ z2 | %45
 (6:4:6x/ x/ x/ B/e/b/ z2 | z4 | EAea- | [aa']2 z2 |] %49
V:3
 x4 | x4 | x4 | x4 | x4 | x4 | x4 | x4 | x4 | x4 | x4 | x4 | x4 | x4 | x4 | x4 | x4 | x4 | x4 | %19
 x4 | x4 | x4 | x4 | x4 | x4 | x4 | x4 | x4 | x4 | x4 | x4 | x4 | x4 | x4 | x4 | x4 | x4 | x4 | %38
 x4 | x4 | x4 | x4 | x4 | x4 | x4 | x4 | x4 | x A3- | A2 z2 |] %49
V:4
 x4 | x4 | x4 | x4 | x4 | x4 | x4 | x4 | x4 | x4 | x4 | x4 | x4 | x4 | x4 | x4 | x4 | x4 | x4 | %19
 x4 | x4 | x4 | x4 | x4 | x4 | x4 | x4 | x4 | x4 | x4 | x4 | x4 | x4 | x4 | x4 | x4 | x4 | x4 | %38
 x4 | x4 | x4 | x4 | x4 | x4 | x4 | x4 | x4 | x2 e2- | e2 z2 |] %49
V:5
 x4 | x4 | x4 | x4 | x4 | x4 | x4 | x4 | x4 | x4 | x4 | x4 | x4 | x4 | x4 | x4 | x4 | x4 | x4 | %19
 x4 | x4 | x4 | x4 | x4 | x4 | x4 | x4 | x4 | x4 | x4 | x4 | x4 | x4 | x4 | x4 | x4 | x4 | x4 | %38
 x4 | x4 | x4 | x4 | x4 | x4 | x4 | x4 | x4 | E2- E2- | E2 z2 |] %49
V:6
 (6:4:6(A,/=B,/C/ x/ x/ x/) (6:4:6(G,/B,/_B,/ x/ x/ x/) | %1
 (6:4:6(F,/G,/A,/ x/ x/ x/) (6:4:6(E,/^F,/G,/ x/ x/ x/) | %2
 (6:4:6(D,/=E,/F,/ x/ x/ x/) (6:4:6(C,/=D,/_E,/ x/ x/ x/) | %3
 (6:4:6(B,,/F,/B,/ x/ x/ x/) (6:4:6(E,/=A,/B,/ x/ x/ x/) | %4
 (6:4:6(A,/=B,/C/ x/ x/ x/) (6:4:6(G,/=A,/_B,/ x/ x/ x/) | %5
 (6:4:6(F,/G,/A,/ x/ x/ x/) (6:4:6(G,/=A,/B,/ x/ x/ x/) | %6
 (6:4:6(_A,/=B,/C/ x/ x/ x/) (6:4:6(F,/B,/C/ x/ x/ x/) | %7
 (6:4:6(_B,/C/D/ x/ x/ x/) (6:4:6(A,/B,/D/ x/ x/ x/) | %8
 (6:4:6(G,/B,/D/ x/ x/ x/) (6:4:6(C,/G,/C/ x/ x/ x/) | %9
 (6:4:6(F,/A,/C/ x/ x/ x/) (6:4:6(D,/A,/C/ x/ x/ x/) | %10
 (6:4:6(_E,/"^cresc."!<(!A,/C/ x/ x/ x/)!<)! (6:4:6(E,/A,/!<(!B,/ x/ x/!<)! x/) | %11
 (6:4:6(E,/A,/C/ x/ x/ x/) (6:4:6(E,/C/E/ x/ x/ x/) | (6:4:6(E,/B,/F/ x/ x/ x/)[K:treble] x2 | %13
 z2 z[K:bass]!p! .[E,B,] | (6:4:6(A/=B/c/ x/ x/ x/) (6:4:6(G/=A/_B/ x/ x/ x/) | %15
 (6:4:6(F/G/A/ x/ x/ x/) (6:4:6(E/^F/G/ x/ x/ x/) | %16
 (6:4:6(D/=E/F/ x/ x/ x/) (6:4:6(C/=D/_E/ x/ x/ x/) | %17
 (6:4:6(B,/=E/F/ x/ x/ x/)[K:bass] (6:4:6(E,/B,/_E/ x/ x/ x/) | %18
 (6:4:6(A,/=B,/C/ x/ x/ x/) (6:4:6(G,/=A,/_B,/ x/ x/ x/) | %19
 (6:4:6(F,/G,/A,/ x/ x/ x/) (6:4:6(G,/=A,/B,/ x/ x/ x/) | %20
 (6:4:6(_A,/=B,/C/ x/ x/ x/) (6:4:6(F,/B,/C/ x/ x/ x/) | %21
 (6:4:6(B,/C/D/ x/ x/ x/) (6:4:6(A,/B,/D/ x/ x/ x/) | %22
 (6:4:6(G,/B,/D/ x/ x/ x/) (6:4:6(C,/G,/C/ x/ x/ x/) | %23
 (6:4:6(F,/=B,/C/ x/ x/ x/) (6:4:6(D,/A,/C/ x/ x/ x/) | %24
 (6:4:6(E,/A,/C/ x/ x/ x/) (6:4:6(E,/A,/B,/ x/ x/ x/) | %25
 (6:4:6(E,/A,/C/ x/ x/ x/) (6:4:6(E,/C/E/ x/ x/ x/) | (E,/4B,/4D/4F/4 x[K:treble] .f'2) | %27
 z2 z[K:bass]!p! [E,B,] |!mf! (6:4:6(A,/=B,/C/ x/ x/ x/) (6:4:6(E,/=A,/_B,/ x/ x/ x/) | %29
 (6:4:6(F,/G,/A,/ x/ x/ x/) (6:4:6(C,/^F,/G,/ x/ x/ x/) | %30
 (6:4:6(=D,/=E,/=F,/ x/ x/ x/) (6:4:6(C,/E,/F,/ x/ x/ x/) | %31
!<(! (6:4:6(B,,/F,/A,/ x/ x/ x/)!<)! (6:4:6(B,,/F,/A,/ x/ x/ x/) | %32
 (6:4:6(E,,/B,,/E,/ x/ x/ x/) (6:4:6(E,/A,/C/ x/ x/ x/) | %33
 (6:4:6(E,,/B,,/E,/ x/ x/ x/) (6:4:6(E,/A,/C/ x/ x/ x/) | %34
!<(! (6:4:6(E,,/B,,/E,/ x/ x/ x/)!<)! (6:4:6(G,,/=D,/G,/ x/ x/ x/) | %35
 (6:4:6(C,/G,/C/ x/ x/ x/)[K:treble]!>)!!>(! (6:4:6(C/G/c/ x/ x/ x/) | .[F,CF]2 z!p! F, | %37
 !>![B,,F,]2 z2 |!p! (6:4:6(D,/F,/G,/ x/ x/ x/) (6:4:6(C,/^F,/G,/ x/ x/ x/) | %39
 (6:4:6(F,,/C,/F,/ x/ x/ x/) (6:4:6(F,,/B,,/F,/ x/ x/ x/) | (6:4:6(E,,/C,/E,/ x/ x/ x/ [E,A,C]) z | %41
 z (.[G,A,E].[F,A,D].[E,A,C]) |"^colla voce" .[=D,A,C]2 [E,,B,,E,]2 | %43
!p! (6:4:6(A,/=B,/C/ x/ x/ x/) (6:4:6(G,/A,/C/ x/ x/ x/) | (6:4:6(F,/A,/=D/ x/ x/ x/) z2 | %45
 (6:4:6(C,/_D/G/ x/ x/ x/) z2 | z A,,E,C- | [A,,E,C]4- | [A,,E,C]2 z2 |] %49
V:7
 (A,2 G,2) | (F,2 E,2) | (D,2 C,2 | B,,2 E,2) | (_A,2 G,2) | (F,2 G,2) | (A,2 F,2) | (B,2 A,2) | %8
 (G,2 C,2) | (F,2 =D,2) | E,2 E,2 | E,2 E,2 | E,2[K:treble] .d'2 | x3[K:bass] x | (A2 G2) | %15
 (F2 E2) | (D2 C2 | B,2[K:bass] E,2) | (A,2 G,2) | (F,2 G,2) | (A,2 F,2) | (B,2 A,2) | (G,2 C,2) | %23
 (F,2 =D,2) | E,2 E,2 | E,2 E,2 | x2[K:treble] x2 | x3[K:bass] x | (A,2 E,2) | (F,2 C,2) | %30
 (=D,2 C,2) | B,,2 B,,2 | E,,2 E,2 | E,,2 E,2 | E,,2 [G,,,G,,]2 | [C,,C,]2[K:treble] C2 | x4 | x4 | %38
 D,2 C,2 | F,,2 F,,2 | (E,,2 x2) | x4 | x4 | (A,2 G,2) | F,2 x2 | C,2 x2 | x A,,3- | x4 | x4 |] %49
V:8
 x4 | x4 | x4 | x4 | x4 | x4 | x4 | x4 | x4 | x4 | x4 | x4 | x2[K:treble] x2 | x3[K:bass] x | x4 | %15
 x4 | x4 | x2[K:bass] x2 | x4 | x4 | x4 | x4 | x4 | x4 | x4 | x4 | x2[K:treble] x2 | x3[K:bass] x | %28
 x4 | x4 | x4 | x4 | x4 | x4 | x4 | x2[K:treble] x2 | x4 | x4 | x4 | x4 | x4 | x4 | x4 | x4 | x4 | %45
 x4 | x2 E,2- | x4 | x4 |] %49

